X:1
T:piano lemon
T:piano lemon
%%score { 1 | 2 }
L:1/8
Q:1/4=65
M:4/4
K:B
V:1 treble nm="Piano" snm="Pno."
V:2 bass 
V:1
"^\n" z4 z3 B/c/ | dB<Gc AF<DA | GF<B,F D2 z C/D/ | E2 BA/B/ F2 ED/E/ | ^E2 BA/G/ =G2 z B/c/ | %5
 dB<Gc AF<DA | GF<B,F D2 z C/D/ | E2 FE/F/ DFBd | c>c c>B B4 | z8 | z4 C4 | B,4 G,4 | C4 D4 | %13
 [^E^G]3 z =G4 | D4 C4 | B,4 B,4 | G4 F4 | A4 B4 | E4 D2 D2 | F4 D2 D2 | G4 BDDD | A8 | E4 A4 | %23
 E4 A4 | E4 G4 | c4 F4 | E4 A4 | E4 G4 | E4 G4 | E4 G4 | E4 G4 | [EB]4 [EB]4 | z8 | z8 |] %34
V:2
 z8 | [B,,D,G,]4 [A,,C,F,]4 | [G,,B,,E,]4 [F,,B,,D,]4 | [G,,B,,E,]4 [B,,D,F,]4 | [B,,G,]4 [A,C]4 | %5
 z8 | z8 | z8 | z8 | z8 | z8 | z8 | z8 | z8 | z8 | z8 | z8 | z8 | z8 | z8 | z8 | z8 | z8 | z8 | %24
 z8 | z8 | z8 | z8 | z8 | z8 | z8 | z8 | z8 | z8 |] %34

